symbols/web/picture_in_picture_alt/materialsymbolsrounded/picture_in_picture_alt_wght700grad200_24px.svg

<svg xmlns="http://www.w3.org/2000/svg" height="24" width="24"><path d="M12.325 16.75h4.75q.7 0 1.188-.5.487-.5.487-1.2v-2.725q0-.725-.487-1.212-.488-.488-1.188-.488h-4.75q-.725 0-1.212.488-.488.487-.488 1.212v2.725q0 .7.488 1.2.487.5 1.212.5ZM4.3 21.075q-1.425 0-2.413-.988Q.9 19.1.9 17.675V6.325q0-1.425.987-2.413.988-.987 2.413-.987h15.4q1.425 0 2.413.987.987.988.987 2.413v11.35q0 1.425-.987 2.412-.988.988-2.413.988Zm0-3.4V6.325v11.35Zm0 0h15.4V6.325H4.3v11.35Zm8.575-3.175v-1.625H16.5V14.5Z"/></svg>

<svg xmlns="http://www.w3.org/2000/svg" height="24" width="24"><path d="M12.325 16.75H17.075Q17.775 16.75 18.263 16.25Q18.75 15.75 18.75 15.05V12.325Q18.75 11.6 18.263 11.113Q17.775 10.625 17.075 10.625H12.325Q11.6 10.625 11.113 11.113Q10.625 11.6 10.625 12.325V15.05Q10.625 15.75 11.113 16.25Q11.6 16.75 12.325 16.75ZM4.3 21.075Q2.875 21.075 1.887 20.087Q0.9 19.1 0.9 17.675V6.325Q0.9 4.9 1.887 3.912Q2.875 2.925 4.3 2.925H19.7Q21.125 2.925 22.113 3.912Q23.1 4.9 23.1 6.325V17.675Q23.1 19.1 22.113 20.087Q21.125 21.075 19.7 21.075ZM4.3 17.675Q4.3 17.675 4.3 17.675Q4.3 17.675 4.3 17.675V6.325Q4.3 6.325 4.3 6.325Q4.3 6.325 4.3 6.325Q4.3 6.325 4.3 6.325Q4.3 6.325 4.3 6.325V17.675Q4.3 17.675 4.3 17.675Q4.3 17.675 4.3 17.675ZM4.3 17.675H19.7Q19.7 17.675 19.7 17.675Q19.7 17.675 19.7 17.675V6.325Q19.7 6.325 19.7 6.325Q19.7 6.325 19.7 6.325H4.3Q4.3 6.325 4.3 6.325Q4.3 6.325 4.3 6.325V17.675Q4.3 17.675 4.3 17.675Q4.3 17.675 4.3 17.675ZM12.875 14.5V12.875H16.5V14.5Z"/></svg>
